Obsidian-SemiLight/actions/22s/view-calendar-whatsnext.svg

<svg viewBox="0 0 22 22" xmlns="http://www.w3.org/2000/svg"><path d="m4 3v2h-1v1h1v1h-1v1h1v6h-1v1h1v1h-1v1h1v2h3 4v-1h-1-1-2v-2-1-2-1-2-1-2-1-2h2 1 8v2 1 2 1 1h1v-8h-12zm11.707031 9-.707031.707031 2.292969 2.292969h-4.292969v1h4.292969l-2.292969 2.292969.707031.707031 3.292969-3.292969.207031-.207031-.207031-.207031z" fill="#4d4d4d"/></svg>

<svg xmlns="http://www.w3.org/2000/svg" viewBox="0 0 22 22">
  <defs id="defs3051">
    <style type="text/css" id="current-color-scheme">
      .ColorScheme-Text {
        color:#4d4d4d;
      }
      </style>
  </defs>
 <path 
     style="fill:currentColor;fill-opacity:1;stroke:none" 
     d="M 4 3 L 4 5 L 3 5 L 3 6 L 4 6 L 4 7 L 3 7 L 3 8 L 4 8 L 4 14 L 3 14 L 3 15 L 4 15 L 4 16 L 3 16 L 3 17 L 4 17 L 4 19 L 7 19 L 11 19 L 11 18 L 10 18 L 9 18 L 7 18 L 7 16 L 7 15 L 7 13 L 7 12 L 7 10 L 7 9 L 7 7 L 7 6 L 7 4 L 9 4 L 10 4 L 18 4 L 18 6 L 18 7 L 18 9 L 18 10 L 18 11 L 19 11 L 19 3 L 7 3 L 4 3 z M 15.707031 12 L 15 12.707031 L 17.292969 15 L 13 15 L 13 16 L 17.292969 16 L 15 18.292969 L 15.707031 19 L 19 15.707031 L 19.207031 15.5 L 19 15.292969 L 15.707031 12 z "
	 class="ColorScheme-Text"
     />
</svg>
